; generated by PrusaSlicer 2.6.0+win64 on 2023-08-06 at 11:42:23 UTC


;
;

;
;
; TODO: check the size of the extruder and the y-bar clearance. Optimize & test supports.

; external perimeters extrusion width = 0.42mm
; perimeters extrusion width = 0.44mm
; infill extrusion width = 0.44mm
; solid infill extrusion width = 0.44mm
; top infill extrusion width = 0.44mm
; support material extrusion width = 0.44mm
; first layer extrusion width = 0.60mm

; external perimeters extrusion width = 0.42mm
; perimeters extrusion width = 0.44mm
; infill extrusion width = 0.44mm
; solid infill extrusion width = 0.44mm
; top infill extrusion width = 0.44mm
; support material extrusion width = 0.44mm
; first layer extrusion width = 0.60mm

M104 S205 T0 ; set temperature
M104 S205 T1 ; set temperature
;TYPE:Custom
M140 S60 ; set bed temp
M190 S60 ; wait for bed temp
start_print
G90
brush_T0
brush_T1
T0
G1 Z5.0 F3000 
G1 X100.1 Y3 Z0.28 F5000.0 
G1 X280.1 Y3.0 Z0.28 F1500.0 E15 
G1 X280.4 Y3.0 Z0.28 F5000.0 
G1 X100.4 Y3 Z0.28 F1500.0 E30 
G92 E0
G1 Z5.0 F3000
T1
G1 X100.1 Y4 Z0.28 F5000.0 
G1 X280.1 Y4.0 Z0.28 F1500.0 E15 
G1 X280.4 Y4.0 Z0.28 F5000.0 
G1 X100.4 Y4 Z0.28 F1500.0 E30 
G92 E0
G1 Z5.0 F3000
M109 S205 T0 ; set temperature and wait for it to be reached
M109 S205 T1 ; set temperature and wait for it to be reached
G21 ; set units to millimeters
G90 ; use absolute coordinates
M83 ; use relative distances for extrusion
T0

M109 S205 T0 ; Wait for Extruder temperature
; Filament gcode
M141 S25 ; Start Chanber fan at 25 Deg
G1 Z.3 F18000
M107
;LAYER_CHANGE
;Z:0.3
;HEIGHT:0.3
;BEFORE_LAYER_CHANGE
;0.3
G92 E0

G1 Z.3 F18000
;AFTER_LAYER_CHANGE
;0.3
G1 E-.75 F3000
G1 Z.8 F18000
M204 S4500
G1 X226.279 Y177.32
G1 Z.3
G1 E.75 F1800
;HEIGHT:0.3
;TYPE:Wipe tower
;WIDTH:0.5
G1 X226.279 Y177.820 E0.0272 F2700
G1 X192.279 E1.8473
G1 Y177.320 E0.0272
G1 X226.279 E1.8473
G1 Y177.820
G1 X226.779 Y178.320
G1 X191.779 E1.9017
G1 Y176.820 E0.0815
G1 X226.779 E1.9017
G1 Y178.320 E0.0815
G1 X227.215 Y178.756
G1 X191.343 E1.9490
G1 Y176.384 E0.1288
G1 X227.215 E1.9490
G1 Y178.756 E0.1288
G1 X227.650 Y179.191
G1 X190.908 E1.9963
G1 Y175.949 E0.1762
G1 X227.650 E1.9963
G1 Y179.191 E0.1762
G1 X228.086 Y179.627
G1 X190.472 E2.0437
G1 Y175.513 E0.2235
G1 X228.086 E2.0437
G1 Y179.627 E0.2235
G1 X228.521 Y180.062
G1 X190.037 E2.0910
G1 Y175.078 E0.2708
G1 X228.521 E2.0910
G1 Y180.062 E0.2708
G1 X228.957 Y180.498
G1 X189.601 E2.1383
G1 Y174.642 E0.3182
G1 X228.957 E2.1383
G1 Y180.498 E0.3182

G1 E-.75 F3000
G1 Z.8 F18000
G1 X229.98 Y184.865
G1 Z.3
G1 E.75 F1800
M204 S1000
;TYPE:Skirt/Brim
;WIDTH:0.6
;HEIGHT:0.3
G1 F2700
G1 X228.957 Y185.105 E.0702
G1 X189.601 Y185.105 E2.62919
G1 X187.733 Y184.709 E.12757
G1 X186.186 Y183.59 E.12755
G1 X185.305 Y182.161 E.11215
G1 X177.604 Y162.263 E1.42538
G1 X177.293 Y160.6 E.11302
G1 X177.293 Y94.4 E4.42252
G1 X177.689 Y92.532 E.12757
G1 X178.808 Y90.985 E.12755
G1 X180.458 Y90.025 E.12753
G1 X181.9 Y89.793 E.09757
G1 X248.1 Y89.793 E4.42252
G1 X249.968 Y90.189 E.12757
G1 X251.515 Y91.308 E.12755
G1 X252.475 Y92.958 E.12753
G1 X252.707 Y94.4 E.09757
G1 X252.707 Y112.8 E1.22922
G1 X252.533 Y114.054 E.08458
G1 X233.39 Y181.752 E4.69993
G1 X232.501 Y183.441 E.12751
G1 X231.003 Y184.626 E.1276
G1 X230.039 Y184.852 E.06615
M204 S4500
G1 X229.939 Y184.367 F18000
M204 S1000
G1 F2700
G1 X228.957 Y184.569 E.06698
G1 X189.601 Y184.569 E2.62919
G1 X187.851 Y184.174 E.11985
G1 X186.441 Y183.066 E.1198
G1 X185.804 Y181.968 E.0848
G1 X178.103 Y162.069 E1.42544
G1 X177.829 Y160.6 E.09983
G1 X177.829 Y94.4 E4.42252
G1 X178.224 Y92.65 E.11985
G1 X179.332 Y91.24 E.1198
G1 X180.939 Y90.444 E.1198
G1 X181.9 Y90.329 E.06466
G1 X248.1 Y90.329 E4.42252
G1 X249.85 Y90.724 E.11985
G1 X251.26 Y91.832 E.1198
G1 X252.056 Y93.439 E.1198
G1 X252.171 Y94.4 E.06466
G1 X252.171 Y112.8 E1.22922
G1 X252.018 Y113.908 E.07472
G1 X232.875 Y181.606 E4.69993
G1 X232.018 Y183.182 E.11984
G1 X230.568 Y184.237 E.11979
G1 X229.997 Y184.355 E.03895
M204 S4500
G1 X229.914 Y183.869 F18000
M204 S1000
G1 F2700
G1 X228.957 Y184.034 E.06488
G1 X189.601 Y184.034 E2.62919
G1 X187.978 Y183.639 E.11159
G1 X186.718 Y182.544 E.11152
G1 X186.304 Y181.774 E.0584
G1 X178.603 Y161.876 E1.42538
G1 X178.364 Y160.6 E.08673
G1 X178.364 Y94.4 E4.42252
G1 X178.759 Y92.777 E.11159
G1 X179.854 Y91.517 E.11152
G1 X181.9 Y90.864 E.14348
G1 X248.1 Y90.864 E4.42252
G1 X249.723 Y91.259 E.11159
G1 X250.983 Y92.354 E.11152
G1 X251.636 Y94.4 E.14348
G1 X251.636 Y112.8 E1.22922
G1 X251.502 Y113.762 E.06489
G1 X232.359 Y181.46 E4.69993
G1 X231.538 Y182.914 E.11155
G1 X230.142 Y183.829 E.11151
G1 X229.973 Y183.859 E.01147
M204 S4500
; printing object Offset_X_Y_dual_extruder_1 id:0 copy 0
G1 E-.75 F3000
G1 Z.8 F18000
G1 X199.16 Y111.814
G1 Z.3
G1 E.75 F1800
M204 S1000
;TYPE:Perimeter
;WIDTH:0.6
G1 F2700
G1 X199.019 Y111.981 E.0146
G1 X198.879 Y112.305 E.02358
G1 X198.829 Y112.668 E.02448
G1 X198.829 Y159.129 E3.10384
G1 X183.371 Y159.129 E1.03268
G1 X183.371 Y95.871 E4.22597
G1 X246.629 Y95.871 E4.22597
G1 X246.629 Y111.329 E1.03268
G1 X200.168 Y111.329 E3.10384
G1 X200.045 Y111.334 E.00822
G1 X199.691 Y111.417 E.02429
G1 X199.299 Y111.648 E.0304
G1 X199.198 Y111.768 E.01048
M204 S4500
G1 X199.552 Y112.173 F18000
M204 S1000
G1 F2700
G1 X199.417 Y112.382 E.01662
G1 X199.364 Y112.668 E.01943
G1 X199.364 Y159.664 E3.13958
G1 X182.836 Y159.664 E1.10416
G1 X182.836 Y95.336 E4.29745
G1 X247.164 Y95.336 E4.29745
G1 X247.164 Y111.864 E1.10416
G1 X200.168 Y111.864 E3.13958
G1 X199.882 Y111.917 E.01943
G1 X199.585 Y112.123 E.02415
M204 S4500
G1 X199.964 Y112.494 F18000
M204 S1000
;TYPE:External perimeter
G1 F2700
G1 X199.9 Y112.668 E.01239
G1 X199.9 Y160.2 E3.17539
G1 X182.3 Y160.2 E1.17577
G1 X182.3 Y94.8 E4.36907
G1 X247.7 Y94.8 E4.36907
G1 X247.7 Y112.4 E1.17577
G1 X200.168 Y112.4 E3.17539
G1 X200.122 Y112.404 E.00308
G1 X200.016 Y112.464 E.00814
M204 S4500
G1 X199.78 Y112.477 F18000
G1 E-.75 F3000
G1 Z.8 F18000
G1 X245.357 Y96.059
G1 Z.3
G1 E.75 F1800
M204 S1000
;TYPE:Solid infill
;WIDTH:0.600556
G1 F2700
G1 X246.2 Y96.902 E.07973
G1 X246.2 Y97.66 E.05069
G1 X244.84 Y96.3 E.12862
G1 X244.082 Y96.3 E.05069
G1 X246.2 Y98.418 E.20031
G1 X246.2 Y99.176 E.05069
G1 X243.324 Y96.3 E.272
G1 X242.565 Y96.3 E.05076
G1 X246.2 Y99.935 E.34378
G1 X246.2 Y100.693 E.05069
G1 X241.807 Y96.3 E.41547
G1 X241.049 Y96.3 E.05069
G1 X246.2 Y101.451 E.48716
G1 X246.2 Y102.209 E.05069
G1 X240.291 Y96.3 E.55884
G1 X239.532 Y96.3 E.05076
G1 X246.2 Y102.968 E.63063
G1 X246.2 Y103.726 E.05069
G1 X238.774 Y96.3 E.70231
G1 X238.016 Y96.3 E.05069
G1 X246.2 Y104.484 E.774
G1 X246.2 Y105.243 E.05076
G1 X237.257 Y96.3 E.84579
G1 X236.499 Y96.3 E.05069
G1 X246.2 Y106.001 E.91747
G1 X246.2 Y106.759 E.05069
G1 X235.741 Y96.3 E.98916
G1 X234.983 Y96.3 E.05069
G1 X246.2 Y107.517 E1.06085
G1 X246.2 Y108.276 E.05076
G1 X234.224 Y96.3 E1.13263
G1 X233.466 Y96.3 E.05069
G1 X246.2 Y109.034 E1.20432
G1 X246.2 Y109.792 E.05069
G1 X232.708 Y96.3 E1.27601
G1 X231.95 Y96.3 E.05069
G1 X246.2 Y110.55 E1.3477
G1 X246.2 Y110.9 E.02341
G1 X245.792 Y110.9 E.02728
G1 X231.191 Y96.3 E1.38084
G1 X230.433 Y96.3 E.05069
G1 X245.034 Y110.9 E1.38084
G1 X244.275 Y110.9 E.05076
G1 X229.675 Y96.3 E1.3808
G1 X228.917 Y96.3 E.05069
G1 X243.517 Y110.9 E1.3808
G1 X242.759 Y110.9 E.05069
G1 X228.158 Y96.3 E1.38084
G1 X227.4 Y96.3 E.05069
G1 X242.001 Y110.9 E1.38084
G1 X241.242 Y110.9 E.05076
G1 X226.642 Y96.3 E1.3808
G1 X225.884 Y96.3 E.05069
G1 X240.484 Y110.9 E1.3808
G1 X239.726 Y110.9 E.05069
G1 X225.125 Y96.3 E1.38084
G1 X224.367 Y96.3 E.05069
G1 X238.968 Y110.9 E1.38084
G1 X238.209 Y110.9 E.05076
G1 X223.609 Y96.3 E1.3808
G1 X222.85 Y96.3 E.05076
G1 X237.451 Y110.9 E1.38084
G1 X236.693 Y110.9 E.05069
G1 X222.092 Y96.3 E1.38084
G1 X221.334 Y96.3 E.05069
G1 X235.934 Y110.9 E1.3808
G1 X235.176 Y110.9 E.05069
G1 X220.576 Y96.3 E1.3808
G1 X219.817 Y96.3 E.05076
G1 X234.418 Y110.9 E1.38084
G1 X233.66 Y110.9 E.05069
G1 X219.059 Y96.3 E1.38084
G1 X218.301 Y96.3 E.05069
G1 X232.901 Y110.9 E1.3808
G1 X232.143 Y110.9 E.05069
G1 X217.543 Y96.3 E1.3808
G1 X216.784 Y96.3 E.05076
G1 X231.385 Y110.9 E1.38084
G1 X230.627 Y110.9 E.05069
G1 X216.026 Y96.3 E1.38084
G1 X215.268 Y96.3 E.05069
G1 X229.868 Y110.9 E1.3808
G1 X229.11 Y110.9 E.05069
G1 X214.51 Y96.3 E1.3808
G1 X213.751 Y96.3 E.05076
G1 X228.352 Y110.9 E1.38084
G1 X227.594 Y110.9 E.05069
G1 X212.993 Y96.3 E1.38084
G1 X212.235 Y96.3 E.05069
G1 X226.835 Y110.9 E1.3808
G1 X226.077 Y110.9 E.05069
G1 X211.476 Y96.3 E1.38084
G1 X210.718 Y96.3 E.05069
G1 X225.319 Y110.9 E1.38084
G1 X224.56 Y110.9 E.05076
G1 X209.96 Y96.3 E1.3808
G1 X209.202 Y96.3 E.05069
G1 X223.802 Y110.9 E1.3808
G1 X223.044 Y110.9 E.05069
G1 X208.443 Y96.3 E1.38084
G1 X207.685 Y96.3 E.05069
G1 X222.286 Y110.9 E1.38084
G1 X221.527 Y110.9 E.05076
G1 X206.927 Y96.3 E1.3808
G1 X206.169 Y96.3 E.05069
G1 X220.769 Y110.9 E1.3808
G1 X220.011 Y110.9 E.05069
G1 X205.41 Y96.3 E1.38084
G1 X204.652 Y96.3 E.05069
G1 X219.253 Y110.9 E1.38084
G1 X218.494 Y110.9 E.05076
G1 X203.894 Y96.3 E1.3808
G1 X203.136 Y96.3 E.05069
G1 X217.736 Y110.9 E1.3808
G1 X216.978 Y110.9 E.05069
G1 X202.377 Y96.3 E1.38084
G1 X201.619 Y96.3 E.05069
G1 X216.22 Y110.9 E1.38084
G1 X215.461 Y110.9 E.05076
G1 X200.861 Y96.3 E1.3808
G1 X200.102 Y96.3 E.05076
G1 X214.703 Y110.9 E1.38084
G1 X213.945 Y110.9 E.05069
G1 X199.344 Y96.3 E1.38084
G1 X198.586 Y96.3 E.05069
G1 X213.186 Y110.9 E1.3808
G1 X212.428 Y110.9 E.05069
G1 X197.828 Y96.3 E1.3808
G1 X197.069 Y96.3 E.05076
G1 X211.67 Y110.9 E1.38084
G1 X210.912 Y110.9 E.05069
G1 X196.311 Y96.3 E1.38084
G1 X195.553 Y96.3 E.05069
G1 X210.153 Y110.9 E1.3808
G1 X209.395 Y110.9 E.05069
G1 X194.795 Y96.3 E1.3808
G1 X194.036 Y96.3 E.05076
G1 X208.637 Y110.9 E1.38084
G1 X207.879 Y110.9 E.05069
G1 X193.278 Y96.3 E1.38084
G1 X192.52 Y96.3 E.05069
G1 X207.12 Y110.9 E1.3808
G1 X206.362 Y110.9 E.05069
G1 X191.762 Y96.3 E1.3808
G1 X191.003 Y96.3 E.05076
G1 X205.604 Y110.9 E1.38084
G1 X204.846 Y110.9 E.05069
G1 X190.245 Y96.3 E1.38084
G1 X189.487 Y96.3 E.05069
G1 X204.087 Y110.9 E1.3808
G1 X203.329 Y110.9 E.05069
G1 X188.728 Y96.3 E1.38084
G1 X187.97 Y96.3 E.05069
G1 X202.571 Y110.9 E1.38084
G1 X201.812 Y110.9 E.05076
G1 X187.212 Y96.3 E1.3808
G1 X186.454 Y96.3 E.05069
G1 X201.054 Y110.9 E1.3808
G1 X200.296 Y110.9 E.05069
G1 X185.695 Y96.3 E1.38084
G1 X184.937 Y96.3 E.05069
G1 X199.627 Y110.989 E1.38926
G1 X199.395 Y111.077 E.01659
G1 X199.123 Y111.243 E.02131
G1 X184.179 Y96.3 E1.41328
G1 X183.8 Y96.3 E.02535
G1 X183.8 Y96.679 E.02535
G1 X198.75 Y111.629 E1.4139
G1 X198.579 Y111.892 E.02098
G1 X198.489 Y112.127 E.01683
G1 X183.8 Y97.437 E1.38926
G1 X183.8 Y98.195 E.05069
G1 X198.4 Y112.796 E1.38084
G1 X198.4 Y113.554 E.05069
G1 X183.8 Y98.954 E1.3808
G1 X183.8 Y99.712 E.05069
G1 X198.4 Y114.312 E1.3808
G1 X198.4 Y115.071 E.05076
G1 X183.8 Y100.47 E1.38084
G1 X183.8 Y101.228 E.05069
G1 X198.4 Y115.829 E1.38084
G1 X198.4 Y116.587 E.05069
G1 X183.8 Y101.987 E1.3808
G1 X183.8 Y102.745 E.05069
G1 X198.4 Y117.346 E1.38084
G1 X198.4 Y118.104 E.05069
G1 X183.8 Y103.503 E1.38084
G1 X183.8 Y104.262 E.05076
G1 X198.4 Y118.862 E1.3808
G1 X198.4 Y119.62 E.05069
G1 X183.8 Y105.02 E1.3808
G1 X183.8 Y105.778 E.05069
G1 X198.4 Y120.379 E1.38084
G1 X198.4 Y121.137 E.05069
G1 X183.8 Y106.536 E1.38084
G1 X183.8 Y107.295 E.05076
G1 X198.4 Y121.895 E1.3808
G1 X198.4 Y122.653 E.05069
G1 X183.8 Y108.053 E1.3808
G1 X183.8 Y108.811 E.05069
G1 X198.4 Y123.412 E1.38084
G1 X198.4 Y124.17 E.05069
G1 X183.8 Y109.569 E1.38084
G1 X183.8 Y110.328 E.05076
G1 X198.4 Y124.928 E1.3808
G1 X198.4 Y125.686 E.05069
G1 X183.8 Y111.086 E1.3808
G1 X183.8 Y111.844 E.05069
G1 X198.4 Y126.445 E1.38084
G1 X198.4 Y127.203 E.05069
G1 X183.8 Y112.602 E1.38084
G1 X183.8 Y113.361 E.05076
G1 X198.4 Y127.961 E1.3808
G1 X198.4 Y128.72 E.05076
G1 X183.8 Y114.119 E1.38084
G1 X183.8 Y114.877 E.05069
G1 X198.4 Y129.478 E1.38084
G1 X198.4 Y130.236 E.05069
G1 X183.8 Y115.636 E1.3808
G1 X183.8 Y116.394 E.05069
G1 X198.4 Y130.994 E1.3808
G1 X198.4 Y131.753 E.05076
G1 X183.8 Y117.152 E1.38084
G1 X183.8 Y117.91 E.05069
G1 X198.4 Y132.511 E1.38084
G1 X198.4 Y133.269 E.05069
G1 X183.8 Y118.669 E1.3808
G1 X183.8 Y119.427 E.05069
G1 X198.4 Y134.027 E1.3808
G1 X198.4 Y134.786 E.05076
G1 X183.8 Y120.185 E1.38084
G1 X183.8 Y120.943 E.05069
G1 X198.4 Y135.544 E1.38084
G1 X198.4 Y136.302 E.05069
G1 X183.8 Y121.702 E1.3808
G1 X183.8 Y122.46 E.05069
G1 X198.4 Y137.06 E1.3808
G1 X198.4 Y137.819 E.05076
G1 X183.8 Y123.218 E1.38084
G1 X183.8 Y123.976 E.05069
G1 X198.4 Y138.577 E1.38084
G1 X198.4 Y139.335 E.05069
G1 X183.8 Y124.735 E1.3808
G1 X183.8 Y125.493 E.05069
G1 X198.4 Y140.093 E1.3808
G1 X198.4 Y140.852 E.05076
G1 X183.8 Y126.251 E1.38084
G1 X183.8 Y127.009 E.05069
G1 X198.4 Y141.61 E1.38084
G1 X198.4 Y142.368 E.05069
G1 X183.8 Y127.768 E1.3808
G1 X183.8 Y128.526 E.05069
G1 X198.4 Y143.127 E1.38084
G1 X198.4 Y143.885 E.05069
G1 X183.8 Y129.284 E1.38084
G1 X183.8 Y130.043 E.05076
G1 X198.4 Y144.643 E1.3808
G1 X198.4 Y145.401 E.05069
G1 X183.8 Y130.801 E1.3808
G1 X183.8 Y131.559 E.05069
G1 X198.4 Y146.16 E1.38084
G1 X198.4 Y146.918 E.05069
G1 X183.8 Y132.317 E1.38084
G1 X183.8 Y133.076 E.05076
G1 X198.4 Y147.676 E1.3808
G1 X198.4 Y148.434 E.05069
G1 X183.8 Y133.834 E1.3808
G1 X183.8 Y134.592 E.05069
G1 X198.4 Y149.193 E1.38084
G1 X198.4 Y149.951 E.05069
G1 X183.8 Y135.35 E1.38084
G1 X183.8 Y136.109 E.05076
G1 X198.4 Y150.709 E1.3808
G1 X198.4 Y151.467 E.05069
G1 X183.8 Y136.867 E1.3808
G1 X183.8 Y137.625 E.05069
G1 X198.4 Y152.226 E1.38084
G1 X198.4 Y152.984 E.05069
G1 X183.8 Y138.383 E1.38084
G1 X183.8 Y139.142 E.05076
G1 X198.4 Y153.742 E1.3808
G1 X198.4 Y154.501 E.05076
G1 X183.8 Y139.9 E1.38084
G1 X183.8 Y140.658 E.05069
G1 X198.4 Y155.259 E1.38084
G1 X198.4 Y156.017 E.05069
G1 X183.8 Y141.417 E1.3808
G1 X183.8 Y142.175 E.05069
G1 X198.4 Y156.775 E1.3808
G1 X198.4 Y157.534 E.05076
G1 X183.8 Y142.933 E1.38084
G1 X183.8 Y143.691 E.05069
G1 X198.4 Y158.292 E1.38084
G1 X198.4 Y158.7 E.02728
G1 X198.05 Y158.7 E.02341
G1 X183.8 Y144.45 E1.3477
G1 X183.8 Y145.208 E.05069
G1 X197.292 Y158.7 E1.27601
G1 X196.534 Y158.7 E.05069
G1 X183.8 Y145.966 E1.20432
G1 X183.8 Y146.724 E.05069
G1 X195.776 Y158.7 E1.13263
G1 X195.017 Y158.7 E.05076
G1 X183.8 Y147.483 E1.06085
G1 X183.8 Y148.241 E.05069
G1 X194.259 Y158.7 E.98916
G1 X193.501 Y158.7 E.05069
G1 X183.8 Y148.999 E.91747
G1 X183.8 Y149.757 E.05069
G1 X192.743 Y158.7 E.84579
G1 X191.984 Y158.7 E.05076
G1 X183.8 Y150.516 E.774
G1 X183.8 Y151.274 E.05069
G1 X191.226 Y158.7 E.70231
G1 X190.468 Y158.7 E.05069
G1 X183.8 Y152.032 E.63063
G1 X183.8 Y152.791 E.05076
G1 X189.709 Y158.7 E.55884
G1 X188.951 Y158.7 E.05069
G1 X183.8 Y153.549 E.48716
G1 X183.8 Y154.307 E.05069
G1 X188.193 Y158.7 E.41547
G1 X187.435 Y158.7 E.05069
G1 X183.8 Y155.065 E.34378
G1 X183.8 Y155.824 E.05076
G1 X186.676 Y158.7 E.272
G1 X185.918 Y158.7 E.05069
G1 X183.8 Y156.582 E.20031
G1 X183.8 Y157.34 E.05069
G1 X185.16 Y158.7 E.12862
G1 X184.402 Y158.7 E.05069
G1 X183.559 Y157.857 E.07973
M204 S4500
; stop printing object Offset_X_Y_dual_extruder_1 id:0 copy 0
M106 S255
;LAYER_CHANGE
;Z:0.5
;HEIGHT:0.2
;BEFORE_LAYER_CHANGE
;0.5
G92 E0

G1 Z.5 F18000
;AFTER_LAYER_CHANGE
;0.5
G1 E-.75 F3000
G1 Z1 F18000
G1 X192.279 Y177.82
G1 Z.5
G1 E.75 F1800
;HEIGHT:0.2
;TYPE:Wipe tower
;WIDTH:0.5
G1 X192.279 Y177.320 E0.0190 F2900
G1 X226.279 E1.2922
G1 Y177.820 E0.0190
G1 X192.279 E1.2922
G1 Y177.320
G1 X191.779 Y176.820
G1 X226.779 E1.3302
G1 Y178.320 E0.0570
G1 X191.779 E1.3302
G1 Y176.820 E0.0570

; printing object Offset_X_Y_dual_extruder_1 id:0 copy 0
G1 E-.75 F3000
G1 Z1 F18000
G1 X199.329 Y112.636
G1 Z.5
G1 E.75 F1800
M204 S4000
;TYPE:Perimeter
;WIDTH:0.439999
;HEIGHT:0.2
G1 F12000
G1 X199.306 Y112.779 E.00478
G1 X199.306 Y159.606 E1.5461
G1 X182.894 Y159.606 E.54188
G1 X182.894 Y95.394 E2.1201
G1 X247.106 Y95.394 E2.1201
G1 X247.106 Y111.806 E.54188
G1 X200.279 Y111.806 E1.5461
G1 X200.118 Y111.819 E.00533
G1 X199.823 Y111.919 E.01028
G1 X199.543 Y112.142 E.01182
G1 X199.358 Y112.465 E.01229
G1 X199.339 Y112.577 E.00375
